svg/emoji_u1f93f.svg

<svg width="128" height="128" viewBox="0 0 128 128" fill="none" xmlns="http://www.w3.org/2000/svg">
<path d="M97.9301 47.4198C97.9301 47.4198 92.7301 43.0898 90.9901 41.3498C87.8101 38.1698 80.7301 31.0898 60.2101 31.0898C46.1901 31.0898 36.2201 35.5698 30.5901 41.7798C25.8901 46.9598 18.6001 51.7498 18.6001 51.7498L16.5801 69.5198L27.1301 86.1398C27.1301 86.1398 29.8801 92.9298 38.4001 94.6698C48.9801 96.8198 49.8201 92.2098 61.3801 92.4998C70.9201 92.7398 74.1001 95.9698 82.3301 95.0998C90.7301 94.2198 95.7701 86.7198 97.0701 84.1198C98.3701 81.5198 107.62 64.4698 107.62 64.4698L97.9301 47.4198ZM90.7001 71.1098C89.4801 76.9598 87.5201 79.1998 87.5201 79.1998L38.2501 81.7998C38.2501 81.7998 34.6401 76.8898 32.4701 72.2598C30.3001 67.6398 30.2301 63.1098 31.3101 58.6798C32.7801 52.6498 39.5101 47.5898 39.5101 47.5898L84.9201 47.6998C84.9201 47.6998 87.7701 49.5298 89.9801 54.6398C92.2901 59.9898 91.5201 67.2298 90.7001 71.1098Z" fill="url(#paint0_radial_2351_863)" style=""/>
<path d="M66.8402 110.47C66.8402 110.47 77.8702 109.6 88.0102 100.06C103.46 85.5302 108.08 60.4402 109.41 49.7102C111.01 36.7802 107.24 25.9102 107.24 25.9102L115.48 23.1602C115.48 23.1602 119.25 33.9602 117.65 52.5702C116.39 67.2202 109.41 93.0802 94.9902 106.24C82.0902 118.01 65.7002 119.74 65.7002 119.74L66.8402 110.47Z" fill="#4E636F" style="fill:#4E636F;fill:color(display-p3 0.3069 0.3864 0.4333);fill-opacity:1;"/>
<path d="M107.58 56.9199C107.58 56.9199 109.56 57.5099 110.9 57.8399C113.07 58.3699 117.05 59.2999 117.41 60.0899C118.15 61.7399 115.94 71.1099 114.34 71.2299C112.74 71.3399 109.08 70.4299 107.7 69.5099C106.32 68.5899 107.58 56.9199 107.58 56.9199Z" fill="#484D4F" style="fill:#484D4F;fill:color(display-p3 0.2824 0.3020 0.3098);fill-opacity:1;"/>
<path d="M81.3502 103.71C81.3502 103.71 79.6802 102.58 78.2502 103.71C76.8402 104.82 77.3502 106.64 78.1902 108.19C79.0302 109.74 82.0702 114.16 82.9702 114.94C83.8702 115.72 85.2102 115.76 86.0302 115.27C87.6002 114.33 87.0702 112.54 87.0702 112.54C87.0702 112.54 88.5002 113.81 90.1902 112.87C91.9702 111.88 91.3602 110.04 91.3602 110.04C91.3602 110.04 93.1202 110.98 94.6502 109.81C96.0702 108.72 95.7202 107.17 95.7202 107.17C95.7202 107.17 97.3502 107.79 98.8102 106.23C100.1 104.85 99.3002 103.27 99.3002 103.27C99.3002 103.27 100.63 103.76 101.68 102.52C102.88 101.09 102.01 99.5298 101.35 98.8698C100.69 98.2098 96.1402 93.5898 94.2902 92.8198C93.6502 92.5498 92.6002 92.4998 91.8502 93.1798C90.6602 94.2498 91.5902 95.7798 91.5902 95.7798C91.5902 95.7798 90.1502 94.8298 88.9502 95.9098C87.7002 97.0398 88.5702 98.8298 88.5702 98.8298C88.5702 98.8298 87.0402 97.3898 85.5202 98.4698C84.3202 99.3298 85.0402 101.16 85.0402 101.16C85.0402 101.16 83.5702 99.8898 82.1102 100.98C80.6802 102.05 81.3502 103.71 81.3502 103.71Z" fill="#5C727F" style="fill:#5C727F;fill:color(display-p3 0.3608 0.4471 0.4980);fill-opacity:1;"/>
<path d="M96.9698 8.03997C96.7298 9.73997 103.26 24.37 103.58 25.13C104.1 26.37 107.34 29.92 112.48 27.62C116.87 25.66 115.81 20.8 115.62 20.09C114.9 17.41 110.45 3.52997 108.81 3.19997C107.44 2.91997 97.1598 6.65997 96.9698 8.03997Z" fill="#F28902" style="fill:#F28902;fill:color(display-p3 0.9490 0.5373 0.0078);fill-opacity:1;"/>
<path d="M54.3999 107.42C54.3999 107.42 54.4599 119.95 54.5099 121.28C54.5699 122.61 55.3399 123.83 56.8899 123.89C58.4399 123.95 65.3699 123.89 66.3699 123.83C67.3699 123.77 68.2099 122.68 68.3099 120.73C68.4199 118.62 68.5299 106.6 68.5299 106.6L54.3999 107.42Z" fill="#5C727F" style="fill:#5C727F;fill:color(display-p3 0.3608 0.4471 0.4980);fill-opacity:1;"/>
<path d="M47.47 99.6099C47.3 99.8299 47.97 109.09 61.33 108.92C74.69 108.75 75.63 99.8799 75.52 99.4399C75.41 98.9999 47.63 99.3799 47.47 99.6099Z" fill="#484D4F" style="fill:#484D4F;fill:color(display-p3 0.2824 0.3020 0.3098);fill-opacity:1;"/>
<path d="M14.96 55.1C14.96 55.1 16.04 48.09 19.37 44.97C21.87 42.63 25.09 41.69 28.79 41.42C32.49 41.14 88.68 41.16 93.03 41.24C98.11 41.33 102.41 44.14 104.58 46.79C107.12 49.89 108.07 55.8 108.07 57.37C108.07 58.94 98.94 48.36 98.94 48.36L81.7 46.66L28.52 45.85L14.96 55.1Z" fill="#DE7F0F" style="fill:#DE7F0F;fill:color(display-p3 0.8708 0.4970 0.0581);fill-opacity:1;"/>
<path d="M33.2598 87.0298C33.2598 87.0298 37.6198 90.1898 46.9298 89.2098C56.1198 88.2398 58.6598 78.0798 58.6598 78.0798L65.9198 80.9798C65.9198 80.9798 68.2198 86.9098 74.5098 88.5998C80.7998 90.2898 87.1098 87.8198 87.1098 87.8198L73.1798 79.4098L66.2898 68.3998L56.8898 68.2998L49.8398 79.6498L42.2198 85.4598L33.2598 87.0298Z" fill="#000202" style="fill:#000202;fill:color(display-p3 0.0000 0.0078 0.0078);fill-opacity:1;"/>
<path d="M61.5399 71.6401C59.1499 71.6401 58.1899 75.8501 56.6599 79.1001C55.1299 82.3501 53.0299 86.2701 54.4599 87.6101C55.8899 88.9501 57.5199 88.7601 61.4399 88.8501C65.4599 88.9501 67.5599 88.7501 68.5199 86.9401C69.4199 85.2401 67.5299 81.9301 66.3199 79.0001C64.9799 75.7601 63.6399 71.6401 61.5399 71.6401Z" fill="#5C727D" style="fill:#5C727D;fill:color(display-p3 0.3608 0.4471 0.4902);fill-opacity:1;"/>
<path opacity="0.8" d="M34.3902 80.6101L21.9902 77.0501L15.4102 61.8501L20.5802 50.8501C20.5802 50.8501 34.2702 45.7801 35.6702 46.0001C37.0702 46.2201 66.3902 46.1101 68.1202 46.2201C69.8502 46.3301 98.4102 46.7601 98.6302 47.0801C98.8502 47.4001 106.5 48.5901 106.28 54.9501C106.06 61.3101 104.99 69.9301 104.77 70.6901C104.55 71.4501 102.51 78.3401 100.57 78.7701C98.6302 79.2001 90.1102 79.6301 90.1102 79.6301L72.7602 77.1301L61.5602 64.5401L51.9702 74.1301L34.3902 80.6101Z" fill="url(#paint1_linear_2351_863)" style=""/>
<path d="M18.3398 72.3699L18.8898 67.4699C18.8898 67.4699 23.1798 73.6799 27.6698 75.8799C32.6698 78.3199 37.7998 79.3899 44.5498 76.2399C50.6998 73.3799 53.0698 65.1299 55.8998 62.4099C56.8598 61.4899 58.5198 60.2099 61.6798 60.2999C63.7998 60.3599 65.7298 61.1999 66.5998 61.9699C70.3998 65.3599 72.6198 73.8599 77.1198 76.3499C82.7998 79.4899 89.6098 79.4699 95.2398 75.9599C100.88 72.4499 103.47 68.7499 103.47 68.7499L103.19 76.5099L94.2198 85.5699L77.4998 83.4599L71.3998 77.0799L64.2798 68.0199C64.2798 68.0199 57.0698 68.0199 56.8898 68.2999C56.7098 68.5799 50.3298 78.0999 50.3298 78.0999L43.5798 84.5699C43.5798 84.5699 32.5798 85.5899 31.6598 84.8499C30.7398 84.1099 21.5898 79.2999 21.5898 79.2999L18.3398 72.3699Z" fill="#484D4F" style="fill:#484D4F;fill:color(display-p3 0.2824 0.3020 0.3098);fill-opacity:1;"/>
<path d="M18.3398 72.3699L18.8898 67.4699C18.8898 67.4699 23.1798 73.6799 27.6698 75.8799C32.6698 78.3199 37.7998 79.3899 44.5498 76.2399C50.6998 73.3799 53.0698 65.1299 55.8998 62.4099C56.8598 61.4899 58.5198 60.2099 61.6798 60.2999C63.7998 60.3599 65.7298 61.1999 66.5998 61.9699C70.3998 65.3599 72.6198 73.8599 77.1198 76.3499C82.7998 79.4899 89.6098 79.4699 95.2398 75.9599C100.88 72.4499 103.47 68.7499 103.47 68.7499L103.19 76.5099L94.2198 85.5699L77.4998 83.4599L71.3998 77.0799L64.2798 68.0199C64.2798 68.0199 57.0698 68.0199 56.8898 68.2999C56.7098 68.5799 50.3298 78.0999 50.3298 78.0999L43.5798 84.5699C43.5798 84.5699 32.5798 85.5899 31.6598 84.8499C30.7398 84.1099 21.5898 79.2999 21.5898 79.2999L18.3398 72.3699Z" fill="#2485B9" fill-opacity="0.2" style="fill:#2485B9;fill:color(display-p3 0.1412 0.5216 0.7255);fill-opacity:0.2;"/>
<path d="M101.87 47.3002C98.49 45.4302 93.68 44.5002 86.99 44.6102C80.31 44.7202 31.8 44.2902 28.78 44.3902C25.76 44.5002 22.2 45.5802 19.94 47.1902C15.34 50.4802 14.02 56.8902 13.8 64.0102C13.53 72.5202 18.42 88.0102 36.1 88.1102C48.88 88.1802 52.47 79.6802 55.68 74.4402C57.16 72.0302 58.33 69.3702 61.54 69.4602C64.99 69.5602 65.81 72.0202 66.9 73.9502C70 79.4802 73.02 88.3702 86.98 88.2902C102.5 88.2102 108.45 73.2102 108.75 63.5202C109 54.8002 105.64 49.3902 101.87 47.3002ZM103.27 64.0102C102.84 71.6602 98.84 82.6302 87.21 83.0902C76.32 83.5202 73.41 77.0502 71.79 74.7902C70.17 72.5302 67.29 68.0102 65.74 66.6902C63.58 64.8602 58.55 65.4902 57.04 66.7902C55.12 68.4302 53.01 71.9302 50.76 75.1502C46.99 80.5402 44.52 82.6702 36.87 82.9902C29.22 83.3102 22.96 78.7902 20.48 71.4602C17.56 62.8302 19.19 55.4002 24.15 51.7302C26.55 49.9602 28.79 49.2502 31.16 49.1402C33.53 49.0302 87 48.8202 92.93 49.3602C98.86 49.9002 103.7 56.3602 103.27 64.0102Z" fill="#F09F23" style="fill:#F09F23;fill:color(display-p3 0.9412 0.6235 0.1373);fill-opacity:1;"/>
<defs>
<radialGradient id="paint0_radial_2351_863" cx="0" cy="0" r="1" gradientUnits="userSpaceOnUse" gradientTransform="translate(60.5284 14.7921) scale(72.9624)">
<stop offset="0.5011" stop-color="#5C727D" style="stop-color:#5C727D;stop-color:color(display-p3 0.3608 0.4471 0.4902);stop-opacity:1;"/>
<stop offset="0.8408" stop-color="#484D4F" style="stop-color:#484D4F;stop-color:color(display-p3 0.2824 0.3020 0.3098);stop-opacity:1;"/>
</radialGradient>
<linearGradient id="paint1_linear_2351_863" x1="60.6286" y1="76.665" x2="61.0105" y2="46.1065" gradientUnits="userSpaceOnUse">
<stop offset="0.1909" stop-color="#27A0E2" style="stop-color:#27A0E2;stop-color:color(display-p3 0.1529 0.6275 0.8863);stop-opacity:1;"/>
<stop offset="0.4261" stop-color="#80C7EE" stop-opacity="0.8729" style="stop-color:#80C7EE;stop-color:color(display-p3 0.5020 0.7804 0.9333);stop-opacity:0.8729;"/>
<stop offset="0.746" stop-color="white" stop-opacity="0.7" style="stop-color:white;stop-opacity:0.7;"/>
</linearGradient>
</defs>
</svg>

<?xml version="1.0" encoding="utf-8"?>
<!-- Generator: Adobe Illustrator 25.2.3, SVG Export Plug-In . SVG Version: 6.00 Build 0)  -->
<svg version="1.1" id="Layer_2" xmlns="http://www.w3.org/2000/svg" xmlns:xlink="http://www.w3.org/1999/xlink" x="0px" y="0px"
	 viewBox="0 0 128 128" style="enable-background:new 0 0 128 128;" xml:space="preserve">
<radialGradient id="SVGID_1_" cx="60.5283" cy="14.7923" r="72.9624" gradientUnits="userSpaceOnUse">
	<stop  offset="0.5011" style="stop-color:#5C727D"/>
	<stop  offset="0.8408" style="stop-color:#484D4F"/>
</radialGradient>
<path style="fill:url(#SVGID_1_);" d="M97.93,47.42c0,0-5.2-4.33-6.94-6.07c-3.18-3.18-10.26-10.26-30.78-10.26
	c-14.02,0-23.99,4.48-29.62,10.69c-4.7,5.18-11.99,9.97-11.99,9.97l-2.02,17.77l10.55,16.62c0,0,2.75,6.79,11.27,8.53
	c10.58,2.15,11.42-2.46,22.98-2.17c9.54,0.24,12.72,3.47,20.95,2.6c8.4-0.88,13.44-8.38,14.74-10.98
	c1.3-2.6,10.55-19.65,10.55-19.65L97.93,47.42z M90.7,71.11c-1.22,5.85-3.18,8.09-3.18,8.09l-49.27,2.6c0,0-3.61-4.91-5.78-9.54
	c-2.17-4.62-2.24-9.15-1.16-13.58c1.47-6.03,8.2-11.09,8.2-11.09l45.41,0.11c0,0,2.85,1.83,5.06,6.94
	C92.29,59.99,91.52,67.23,90.7,71.11z"/>
<path style="fill:#4485F6;" d="M66.84,110.47c0,0,11.03-0.87,21.17-10.41c15.45-14.53,20.07-39.62,21.4-50.35
	c1.6-12.93-2.17-23.8-2.17-23.8l8.24-2.75c0,0,3.77,10.8,2.17,29.41c-1.26,14.65-8.24,40.51-22.66,53.67
	c-12.9,11.77-29.29,13.5-29.29,13.5L66.84,110.47z"/>
<path style="fill:#484D4F;" d="M107.58,56.92c0,0,1.98,0.59,3.32,0.92c2.17,0.53,6.15,1.46,6.51,2.25
	c0.74,1.65-1.47,11.02-3.07,11.14c-1.6,0.11-5.26-0.8-6.64-1.72C106.32,68.59,107.58,56.92,107.58,56.92z"/>
<path style="fill:#1664C0;" d="M81.35,103.71c0,0-1.67-1.13-3.1,0c-1.41,1.11-0.9,2.93-0.06,4.48c0.84,1.55,3.88,5.97,4.78,6.75
	c0.9,0.78,2.24,0.82,3.06,0.33c1.57-0.94,1.04-2.73,1.04-2.73s1.43,1.27,3.12,0.33c1.78-0.99,1.17-2.83,1.17-2.83
	s1.76,0.94,3.29-0.23c1.42-1.09,1.07-2.64,1.07-2.64s1.63,0.62,3.09-0.94c1.29-1.38,0.49-2.96,0.49-2.96s1.33,0.49,2.38-0.75
	c1.2-1.43,0.33-2.99-0.33-3.65s-5.21-5.28-7.06-6.05c-0.64-0.27-1.69-0.32-2.44,0.36c-1.19,1.07-0.26,2.6-0.26,2.6
	s-1.44-0.95-2.64,0.13c-1.25,1.13-0.38,2.92-0.38,2.92s-1.53-1.44-3.05-0.36c-1.2,0.86-0.48,2.69-0.48,2.69s-1.47-1.27-2.93-0.18
	C80.68,102.05,81.35,103.71,81.35,103.71z"/>
<path style="fill:#7FDAFB;" d="M96.97,8.04c-0.24,1.7,6.29,16.33,6.61,17.09c0.52,1.24,3.76,4.79,8.9,2.49
	c4.39-1.96,3.33-6.82,3.14-7.53c-0.72-2.68-5.17-16.56-6.81-16.89C107.44,2.92,97.16,6.66,96.97,8.04z"/>
<path style="fill:#5C727F;" d="M54.4,107.42c0,0,0.06,12.53,0.11,13.86c0.06,1.33,0.83,2.55,2.38,2.61c1.55,0.06,8.48,0,9.48-0.06
	c1-0.06,1.84-1.15,1.94-3.1c0.11-2.11,0.22-14.13,0.22-14.13L54.4,107.42z"/>
<path style="fill:#484D4F;" d="M47.47,99.61c-0.17,0.22,0.5,9.48,13.86,9.31c13.36-0.17,14.3-9.04,14.19-9.48
	S47.63,99.38,47.47,99.61z"/>
<path style="fill:#4383F4;" d="M14.96,55.1c0,0,1.08-7.01,4.41-10.13c2.5-2.34,5.72-3.28,9.42-3.55c3.7-0.28,59.89-0.26,64.24-0.18
	c5.08,0.09,9.38,2.9,11.55,5.55c2.54,3.1,3.49,9.01,3.49,10.58s-9.13-9.01-9.13-9.01L81.7,46.66l-53.18-0.81L14.96,55.1z"/>
<path style="fill:#000202;" d="M33.26,87.03c0,0,4.36,3.16,13.67,2.18c9.19-0.97,11.73-11.13,11.73-11.13l7.26,2.9
	c0,0,2.3,5.93,8.59,7.62s12.6-0.78,12.6-0.78l-13.93-8.41l-6.89-11.01l-9.4-0.1l-7.05,11.35l-7.62,5.81L33.26,87.03z"/>
<path style="fill:#5C727D;" d="M61.54,71.64c-2.39,0-3.35,4.21-4.88,7.46c-1.53,3.25-3.63,7.17-2.2,8.51s3.06,1.15,6.98,1.24
	c4.02,0.1,6.12-0.1,7.08-1.91c0.9-1.7-0.99-5.01-2.2-7.94C64.98,75.76,63.64,71.64,61.54,71.64z"/>
<linearGradient id="SVGID_2_" gradientUnits="userSpaceOnUse" x1="60.6284" y1="76.6649" x2="61.0103" y2="46.1064">
	<stop  offset="0.1909" style="stop-color:#27A0E2"/>
	<stop  offset="0.4261" style="stop-color:#80C7EE;stop-opacity:0.8729"/>
	<stop  offset="0.746" style="stop-color:#FFFFFF;stop-opacity:0.7"/>
</linearGradient>
<path style="opacity:0.8;fill:url(#SVGID_2_);" d="M34.39,80.61l-12.4-3.56l-6.58-15.2l5.17-11c0,0,13.69-5.07,15.09-4.85
	s30.72,0.11,32.45,0.22s30.29,0.54,30.51,0.86c0.22,0.32,7.87,1.51,7.65,7.87s-1.29,14.98-1.51,15.74s-2.26,7.65-4.2,8.08
	c-1.94,0.43-10.46,0.86-10.46,0.86l-17.35-2.5L61.56,64.54l-9.59,9.59L34.39,80.61z"/>
<path style="fill:#1565C4;" d="M18.34,72.37l0.55-4.9c0,0,4.29,6.21,8.78,8.41c5,2.44,10.13,3.51,16.88,0.36
	c6.15-2.86,8.52-11.11,11.35-13.83c0.96-0.92,2.62-2.2,5.78-2.11c2.12,0.06,4.05,0.9,4.92,1.67c3.8,3.39,6.02,11.89,10.52,14.38
	c5.68,3.14,12.49,3.12,18.12-0.39c5.64-3.51,8.23-7.21,8.23-7.21l-0.28,7.76l-8.97,9.06L77.5,83.46l-6.1-6.38l-7.12-9.06
	c0,0-7.21,0-7.39,0.28c-0.18,0.28-6.56,9.8-6.56,9.8l-6.75,6.47c0,0-11,1.02-11.92,0.28s-10.07-5.55-10.07-5.55L18.34,72.37z"/>
<path style="fill:#81D7FF;" d="M101.87,47.3c-3.38-1.87-8.19-2.8-14.88-2.69c-6.68,0.11-55.19-0.32-58.21-0.22
	c-3.02,0.11-6.58,1.19-8.84,2.8c-4.6,3.29-5.92,9.7-6.14,16.82c-0.27,8.51,4.62,24,22.3,24.1c12.78,0.07,16.37-8.43,19.58-13.67
	c1.48-2.41,2.65-5.07,5.86-4.98c3.45,0.1,4.27,2.56,5.36,4.49c3.1,5.53,6.12,14.42,20.08,14.34c15.52-0.08,21.47-15.08,21.77-24.77
	C109,54.8,105.64,49.39,101.87,47.3z M103.27,64.01c-0.43,7.65-4.43,18.62-16.06,19.08c-10.89,0.43-13.8-6.04-15.42-8.3
	s-4.5-6.78-6.05-8.1c-2.16-1.83-7.19-1.2-8.7,0.1c-1.92,1.64-4.03,5.14-6.28,8.36c-3.77,5.39-6.24,7.52-13.89,7.84
	s-13.91-4.2-16.39-11.53c-2.92-8.63-1.29-16.06,3.67-19.73c2.4-1.77,4.64-2.48,7.01-2.59c2.37-0.11,55.84-0.32,61.77,0.22
	S103.7,56.36,103.27,64.01z"/>
</svg>
